!!!ONB: MCCC : IJH0467_03 : Extracted Monophonic Melody
!!!COM: Haydn, Joseph
!!!OPR: String Quartet in G minor
!!!OMV: 3
!!!SCT: Hob.III:33 ; Op.20 No.3
!!!ODT: 1772///
**kern
*thru
*k[f#]
*G:
*clefF
*M3/4
4g
4b
4dd
=1
8dd
8cc
8a
8cc
4b
=2
4ee
4ff#
8.gg
16b
=3
4cc
4b
4r
=4
4a
4cc
4ee
=5
4dd
4cc
8b
8gg
=6
8ee
16dd
16cc
4b
16dd
16cc
16b
16a
=7
4a
8b
4.r
=8
4G
4B
4d
=9
8d
8c
8A
8c
4B
=10
4e
4f#
16.g
32a
16.b
32B
=11
4c
4B
4r
=12
2.bb
=13
2.aa
=14
2.gg
=15
2.ff#
=16
4ee
4.gg
8ee
=17
2cc#
4r
=18
4a
4gg
4ff#
=19
4a
4ccc#
4ddd
=20
4a
4gg
4ff#
=21
4a
4ccc#
4ddd
=22
16r
16aa#
16bb
16ff#
16gg
16dd#
16ee
16b
16a
16g
16f#
16e
=23
16r
16gg#
16aa
16ee
16ff#
16cc#
16dd
16ccc#
8ddd
8r
=24
16r
16A#
16B
16gg
4a
8.ee
32dd
32ee
=25
2ddd
16ccc#
16bb
16aa
16gg#
=26
4gg#
24aa
24bb
24gg#
24aa
24bb
24gg#
24aa
24bb
24gg#
24aa
24bb
24gg#
=27
4.aa
8aa
8ccc#
8eee
=28
6..ggg[
48ggg]
16fff#
16eee
16ddd
16ccc#
16bb
16aa
16gg
=29
2.ff#
=30
2.ddd
=31
2.bb
=32
2aa[
16aa]
16ccc#
16ddd
16bb
=33
2aa[
24aa]
24bb
24ccc#
24ddd
24ccc#
24bb
=34
2aa
16aa
16dd
16ddd
16aa
=35
16bb
16dd
16ddd
16bb
16aa
16ff#
16ee
16dd
16cc#
16dd
16ddd
16aa
=36
16bb
16dd
16ddd
16bb
16aa
16ff#
16ee
16dd
16cc#
16dd
16aa
16a
=37
16a#
16b
16cc
16cc#
16dd
16ee
16ff
16ff#
16gg
16gg#
16aa
16aa#
=38
4bb
4r
8.b
16b
=39
4b
4r
24G
24c#
24e
24g
24e
24c#
=40
16d
16d
16d
16d
16f#
16d
16d
16d
24G
24c#
24e
24g
24e
24c#
=41
16d
16d
16d
16d
16f#
16d
16d
16d
24G
24c#
24e
24g
24e
24c#
=42
4c#
4d
4r
=43
2.r
=44
2.r
=45
2.r
=46
2.r
=47
2.dd
=48
2.ff
=49
4ee
2r
=50
2.r
=51
2.r
=52
2.r
=53
2.r
=54
16r
16gg#
16aa
16ee
16dd
16cc
16b
16a
16g#
16a
16b
16a
=55
16r
16gg#
16aa
16ee
16dd
16cc#
16b
16a
16g#
16a
16b
16a
=56
16r
16aa#
16ccc#
16ee
16gg
16cc#
16ee
16a#
16cc#
16g
16f#
16e
=57
16r
16aa#
16bb
16ff#
16ee
16dd
16cc#
16b
16a#
16b
16cc#
16b
=58
16r
16aa#
16bb
16ff#
16ee
16dd#
16cc#
16b
16a#
16b
16cc#
16b
=59
16r
16aa#
16bb
16ff#
16gg
16dd#
16ee
16b
16a
16g
16f#
16e
=60
16r
16bb
16ddd
16bb
16aa
16gg#
16bb
16ff
16ee
16dd
16cc
16b
=61
16r
16gg#
16aa
16ee
16dd
16cc
16b
16a
16g#
16a
16b
16a
=62
16r
16bb
16ccc
16gg#
16aa
16ee
16ff
16dd#
16ee
16cc
16b
16a
=63
16g#
16dd#
16ee
16b
16a
16g#
16f#
16e
16d#
16e
16g#
16b
=64
4ee
2r
=65
4cc
4ee
4gg
=66
8gg
8ff
8dd
8ff
4ee
=67
4aa
4bb
16.ccc
32ddd
16.eee
32ee
=68
4ff
4ee
4r
=69
2.r
=70
2.r
=71
16r
16cc#
16ee
16dd
16cc#
16b-
16a
16g
16f
16e
16d
16c#
=72
16r
16ccc#
16ddd
16aa
16gg
16ff
16ee
16dd
16cc#
16dd
16ee
16dd
=73
2.r
=74
2.r
=75
16r
16dd#
16ff#
16ee
16dd#
16ccc
16bb
16aa
16gg
16ff#
16ee
16dd#
=76
16r
16ddd#
16eee
16bb
16aa
16gg
16ff#
16ee
16dd#
16ee
16ff#
16ee
=77
16r
16dd
16ee
16ff
16gg
16aa
16bb
16ccc
16ddd
16eee
16fff
16ddd
=78
16r
16ddd
16eee
16bb
16ccc
16gg
16ff
16ee
16dd
16cc
16b
16cc
=79
16r
16b
16cc
16dd
16ee
16ff#
16gg#
16aa
16bb
16ccc
16ddd
16bb
=80
16r
16bb
16ccc
16gg#
16aa
16ee
16dd
16cc
16b
16a
16g#
16a
=81
16r
16a
16b
16cc
16dd
16ee
16ff#
16gg
16aa
16bb
16ccc
16aa
=82
16r
16aa
16bb
16ff#
16gg
16dd
16cc
16b
16a
16g
16f#
16g
=83
4f#
4.r
8f#
=84
8g
8a
8b
8cc
8dd
8b
=85
4a
4.r
8f#
=86
8g
8a
8b
8cc
8dd
8b
=87
4a
2r
=88
4d
4cc
4b
=89
4d
4ff#
4gg
=90
4d
4cc
4b
=91
4d
4ff#
4gg
=92
16r
16dd#
16ee
16b
16cc
16g#
16a
16gg#
16aa
16ee
16bb
16ccc
=93
16r
16cc#
16dd
16a
16b
16f#
16g
16ff#
16gg
16cc#
16dd
16aa#
=94
16bb
16ff#
16gg
16ccc#
16ddd
16aa#
16bb
16ff#
16gg
16cc#
16dd
16gg
=95
8ee
16dd
16cc
4b
4a
=96
2gg[
16gg]
16ee
16dd
16cc#
=97
4ee
16dd
16d
16f#
16a
16cc
16dd
16ff#
16aa
=98
6..ccc[
48ccc]
16bb
16aa
16gg
16ff#
16ee
16dd
16cc
=99
2.b
=100
2.gg
=101
2.ee
=102
2dd[
16dd]
16ff#
16gg
16ee
=103
2dd
24dd
24ee
24ff#
24gg
24ff#
24ee
=104
2dd[
16dd]
16g
16gg
16dd
=105
16ee
16g
16gg
16ee
16dd
16b
16a
16g
16f#
16g
16gg
16dd
=106
16ee
16g
16gg
16ee
16dd
16b
16a
16g
16f#
16g
16dd
16d
=107
16d#
16e
16f
16f#
16g
16a
16b-
16b
16cc
16cc#
16dd
16dd#
=108
4ee
4r
8.ee
16ee
=109
4ee
4r
8.A
16c
=110
4B
4r
8.A
32B
32c
=111
4B
4r
8.A
16c
=112
4c
8B
4.r
==
*-
